card-bulleted-settings.svg

<svg fill="currentColor" viewBox="0 0 24 24"><path d="M9 22v2H7v-2zm4 0v2h-2v-2zm4 0v2h-2v-2zm3-2H4a2 2 0 0 1-2-2V6a2 2 0 0 1 2-2h16a2 2 0 0 1 2 2v12a2 2 0 0 1-2 2m-9-7H9v2h2zm8 0h-6v2h6zM7 9H5v2h2zm12 0H9v2h10z"/></svg>

<svg  viewBox="0 0 24 24" fill="currentColor"><path  d="M9,22V24H7V22H9M13,22V24H11V22H13M17,22V24H15V22H17M20,20H4A2,2 0 0,1 2,18V6A2,2 0 0,1 4,4H20A2,2 0 0,1 22,6V18A2,2 0 0,1 20,20M11,13H9V15H11V13M19,13H13V15H19V13M7,9H5V11H7V9M19,9H9V11H19V9Z"/></svg>
